assets/img/braze_icons/scale-02.svg

<svg fill="none" height="24" viewBox="0 0 24 24" width="24" xmlns="http://www.w3.org/2000/svg"><g fill="#801ed7"><path d="m7.7587 2h8.4826c.805-.00001 1.4693-.00002 2.0105.04419.5621.04593 1.0788.14449 1.5642.39179.7526.38349 1.3645.99541 1.748 1.74806.2473.48533.3459 1.00204.3918 1.56414.0442.54119.0442 1.20554.0442 2.0105v8.48262c0 .805 0 1.4693-.0442 2.0105-.0459.5621-.1445 1.0788-.3918 1.5642-.3835.7526-.9954 1.3645-1.748 1.748-.4854.2473-1.0021.3459-1.5642.3918-.5412.0442-1.2055.0442-2.0105.0442h-.2413c-.5523 0-1-.4477-1-1s.4477-1 1-1h.2c.8566 0 1.4389-.0008 1.889-.0376.4384-.0358.6626-.1007.819-.1804.3763-.1917.6823-.4977.874-.874.0797-.1564.1446-.3806.1804-.819.0368-.4501.0376-1.0324.0376-1.889v-8.4c0-.85658-.0008-1.43887-.0376-1.88896-.0358-.43842-.1007-.66262-.1804-.81902-.1917-.37632-.4977-.68229-.874-.87403-.1564-.07969-.3806-.14462-.819-.18044-.4501-.03677-1.0324-.03755-1.889-.03755h-8.4c-.85658 0-1.43887.00078-1.88896.03755-.43842.03582-.66262.10075-.81902.18044-.37632.19174-.68228.49771-.87403.87403-.07969.1564-.14462.3806-.18044.81902-.03677.45009-.03755 1.03238-.03755 1.88896v.2c0 .55229-.44771 1-1 1-.55228 0-1-.44771-1-1v-.2413c-.00001-.80496-.00002-1.46933.0442-2.01052.04592-.5621.14448-1.07881.39178-1.56414.38349-.75265.99541-1.36457 1.74806-1.74806.48534-.2473 1.00204-.34586 1.56414-.39179.54119-.04421 1.20556-.0442 2.01052-.04419z"/><path d="m8.83855 11h-2.67709c-.52715 0-.98191 0-1.35649.0306-.39534.0323-.78856.1036-1.16694.2964-.56449.2876-1.02343.7465-1.31105 1.311-.19279.3784-.26411.7716-.29641 1.167-.0306.3745-.03059.8293-.03057 1.3564v2.6771c-.00002.5272-.00003.982.03057 1.3565.0323.3954.10362.7886.29641 1.167.28762.5645.74656 1.0234 1.31105 1.311.37838.1928.7716.2641 1.16694.2964.37454.0306.82926.0306 1.35634.0306h2.67722c.52708 0 .98196 0 1.35647-.0306.3954-.0323.7886-.1036 1.167-.2964.5645-.2876 1.0234-.7465 1.311-1.311.1928-.3784.2641-.7716.2964-1.167.0306-.3745.0306-.8293.0306-1.3564v-2.6771c0-.5272 0-.982-.0306-1.3565-.0303-.3713-.095-.7407-.2625-1.0977l3.2931-3.29309v2.58579c0 .5523.4477 1 1 1s1-.4477 1-1v-5c0-.55228-.4477-1-1-1h-5c-.5523 0-1 .44772-1 1 0 .55229.4477 1 1 1h2.5858l-3.2931 3.2931c-.357-.1675-.7264-.2322-1.0977-.2625-.37454-.0306-.8293-.0306-1.35645-.0306z"/></g></svg>

<svg width="24" height="24" viewBox="0 0 24 24" fill="none" xmlns="http://www.w3.org/2000/svg">
<path d="M7.7587 2H16.2413C17.0463 1.99999 17.7106 1.99998 18.2518 2.04419C18.8139 2.09012 19.3306 2.18868 19.816 2.43598C20.5686 2.81947 21.1805 3.43139 21.564 4.18404C21.8113 4.66937 21.9099 5.18608 21.9558 5.74818C22 6.28937 22 6.95372 22 7.75868V16.2413C22 17.0463 22 17.7106 21.9558 18.2518C21.9099 18.8139 21.8113 19.3306 21.564 19.816C21.1805 20.5686 20.5686 21.1805 19.816 21.564C19.3306 21.8113 18.8139 21.9099 18.2518 21.9558C17.7106 22 17.0463 22 16.2413 22H16C15.4477 22 15 21.5523 15 21C15 20.4477 15.4477 20 16 20H16.2C17.0566 20 17.6389 19.9992 18.089 19.9624C18.5274 19.9266 18.7516 19.8617 18.908 19.782C19.2843 19.5903 19.5903 19.2843 19.782 18.908C19.8617 18.7516 19.9266 18.5274 19.9624 18.089C19.9992 17.6389 20 17.0566 20 16.2V7.8C20 6.94342 19.9992 6.36113 19.9624 5.91104C19.9266 5.47262 19.8617 5.24842 19.782 5.09202C19.5903 4.7157 19.2843 4.40973 18.908 4.21799C18.7516 4.1383 18.5274 4.07337 18.089 4.03755C17.6389 4.00078 17.0566 4 16.2 4H7.8C6.94342 4 6.36113 4.00078 5.91104 4.03755C5.47262 4.07337 5.24842 4.1383 5.09202 4.21799C4.7157 4.40973 4.40974 4.7157 4.21799 5.09202C4.1383 5.24842 4.07337 5.47262 4.03755 5.91104C4.00078 6.36113 4 6.94342 4 7.8V8C4 8.55229 3.55229 9 3 9C2.44772 9 2 8.55229 2 8V7.7587C1.99999 6.95374 1.99998 6.28937 2.0442 5.74818C2.09012 5.18608 2.18868 4.66937 2.43598 4.18404C2.81947 3.43139 3.43139 2.81947 4.18404 2.43598C4.66938 2.18868 5.18608 2.09012 5.74818 2.04419C6.28937 1.99998 6.95374 1.99999 7.7587 2Z" fill="#801ED7"/>
<path d="M8.83855 11H6.16146C5.63431 11 5.17955 11 4.80497 11.0306C4.40963 11.0629 4.01641 11.1342 3.63803 11.327C3.07354 11.6146 2.6146 12.0735 2.32698 12.638C2.13419 13.0164 2.06287 13.4096 2.03057 13.805C1.99997 14.1795 1.99998 14.6343 2 15.1614V17.8385C1.99998 18.3657 1.99997 18.8205 2.03057 19.195C2.06287 19.5904 2.13419 19.9836 2.32698 20.362C2.6146 20.9265 3.07354 21.3854 3.63803 21.673C4.01641 21.8658 4.40963 21.9371 4.80497 21.9694C5.17951 22 5.63423 22 6.16131 22H8.83853C9.36561 22 9.82049 22 10.195 21.9694C10.5904 21.9371 10.9836 21.8658 11.362 21.673C11.9265 21.3854 12.3854 20.9265 12.673 20.362C12.8658 19.9836 12.9371 19.5904 12.9694 19.195C13 18.8205 13 18.3657 13 17.8386V15.1615C13 14.6343 13 14.1795 12.9694 13.805C12.9391 13.4337 12.8744 13.0643 12.7069 12.7073L16 9.41421V12C16 12.5523 16.4477 13 17 13C17.5523 13 18 12.5523 18 12V7C18 6.44772 17.5523 6 17 6H12C11.4477 6 11 6.44772 11 7C11 7.55229 11.4477 8 12 8H14.5858L11.2927 11.2931C10.9357 11.1256 10.5663 11.0609 10.195 11.0306C9.82046 11 9.3657 11 8.83855 11Z" fill="#801ED7"/>
</svg>
